Sources/FrostedUI/Resources/Icons.xcassets/editProfile20.imageset/edit-profile-20.svg

<svg width="21" height="20" viewBox="0 0 21 20" fill="none" xmlns="http://www.w3.org/2000/svg" data-fui-icon="true">
  <path
    d="M15.334 10.8838C16.4079 9.81005 18.1488 9.81005 19.2227 10.8838C20.2966 11.9577 20.2966 13.6995 19.2227 14.7734L15.1221 18.873C14.6806 19.3144 14.1019 19.5932 13.4814 19.6621L11.9912 19.8271C11.0042 19.9367 10.17 19.1032 10.2793 18.1162L10.4443 16.625C10.5133 16.0045 10.792 15.4259 11.2334 14.9844L15.334 10.8838ZM8.5 11C9.2568 11 9.99045 11.0957 10.6865 11.2744C11.0875 11.3774 11.3293 11.7855 11.2266 12.1865C11.1236 12.5877 10.7147 12.8296 10.3135 12.7266C9.73901 12.5791 9.13064 12.5 8.5 12.5C4.83103 12.5 2 15.1493 2 18.25C2 18.6642 1.66421 19 1.25 19C0.835786 19 0.5 18.6642 0.5 18.25C0.5 14.171 4.16085 11 8.5 11ZM12.2939 16.0449C12.0935 16.2455 11.967 16.5083 11.9355 16.79L11.7695 18.2812C11.7662 18.3129 11.7936 18.3403 11.8252 18.3369L13.3164 18.1709C13.5982 18.1395 13.861 18.0129 14.0615 17.8125L16.5713 15.3037L14.8037 13.5352L12.2939 16.0449ZM18.1621 11.9443C17.674 11.4564 16.8826 11.4564 16.3945 11.9443L15.8643 12.4746L17.6318 14.2422L18.1621 13.7119C18.6501 13.2237 18.6502 12.4324 18.1621 11.9443ZM8.5 1C10.9853 1 13 3.01472 13 5.5C13 7.98528 10.9853 10 8.5 10C6.01472 10 4 7.98528 4 5.5C4 3.01472 6.01472 1 8.5 1ZM8.5 2.5C6.84315 2.5 5.5 3.84315 5.5 5.5C5.5 7.15685 6.84315 8.5 8.5 8.5C10.1569 8.5 11.5 7.15685 11.5 5.5C11.5 3.84315 10.1569 2.5 8.5 2.5Z"
    fill="currentColor"
  />
</svg>

<svg xmlns="http://www.w3.org/2000/svg" width="21" height="20" fill="none" data-fui-icon="true" viewBox="0 0 21 20"><path fill="currentColor" d="M15.334 10.884a2.75 2.75 0 1 1 3.889 3.89l-4.1 4.099a2.75 2.75 0 0 1-1.642.79l-1.49.164a1.55 1.55 0 0 1-1.712-1.71l.165-1.492c.07-.62.348-1.2.79-1.64zM8.5 11c.757 0 1.49.096 2.187.274a.75.75 0 1 1-.373 1.453A7.3 7.3 0 0 0 8.5 12.5c-3.669 0-6.5 2.65-6.5 5.75a.75.75 0 0 1-1.5 0c0-4.079 3.66-7.25 8-7.25m3.794 5.045c-.2.2-.327.463-.359.745l-.165 1.491a.05.05 0 0 0 .055.056l1.491-.166a1.25 1.25 0 0 0 .745-.358l2.51-2.51-1.767-1.768zm5.868-4.1a1.25 1.25 0 0 0-1.767 0l-.53.53 1.767 1.767.53-.53a1.25 1.25 0 0 0 0-1.768M8.5 1a4.5 4.5 0 1 1 0 9 4.5 4.5 0 0 1 0-9m0 1.5a3 3 0 1 0 0 6 3 3 0 0 0 0-6"/></svg>
